X: 38
T:Freegante JB.38
M:6/8
L:1/8
Q:100
S:James Biggins MS, Leeds, 1779.
R:Cotillion
O:England
A:Yorkshire
Z:
Z:vmp.Nick Barber & Chris Partingto
K:G
B2c dBG|gecd2B|A2B cBA|edcB3|B2c dBG|!ge^cd3|b2g afd|ge^cd3:|
|:d2e =fed|=c2Bc2B|!c2d edc|B2AB2G|B2c dBG|ge^cd3|e/f/ge dBG|A/B/cAG3:|]
